icons/rows-16.svg

<svg width="16" height="17" viewBox="0 0 16 17" fill="none" xmlns="http://www.w3.org/2000/svg">
<g clip-path="url(#clip0)">
<path fill-rule="evenodd" clip-rule="evenodd" d="M16 2C16 1.0335 15.2165 0.25 14.25 0.25H1.75C0.783502 0.25 0 1.0335 0 2V6C0 6.9665 0.7835 7.75 1.75 7.75L14.25 7.75C15.2165 7.75 16 6.9665 16 6V2ZM14.25 1.75C14.3881 1.75 14.5 1.86193 14.5 2V6C14.5 6.13807 14.3881 6.25 14.25 6.25L1.75 6.25C1.61193 6.25 1.5 6.13807 1.5 6L1.5 2C1.5 1.86193 1.61193 1.75 1.75 1.75L14.25 1.75Z" fill="black"/>
<path fill-rule="evenodd" clip-rule="evenodd" d="M16 10.5C16 9.5335 15.2165 8.75 14.25 8.75L1.75 8.75C0.783502 8.75 0 9.5335 0 10.5V14.5C0 15.4665 0.7835 16.25 1.75 16.25L14.25 16.25C15.2165 16.25 16 15.4665 16 14.5V10.5ZM14.25 10.25C14.3881 10.25 14.5 10.3619 14.5 10.5V14.5C14.5 14.6381 14.3881 14.75 14.25 14.75L1.75 14.75C1.61193 14.75 1.5 14.6381 1.5 14.5L1.5 10.5C1.5 10.3619 1.61193 10.25 1.75 10.25L14.25 10.25Z" fill="black"/>
</g>
<defs>
<clipPath id="clip0">
<rect width="16" height="16" fill="white" transform="translate(0 0.25)"/>
</clipPath>
</defs>
</svg>

<svg xmlns="http://www.w3.org/2000/svg" width="16" height="17" viewBox="0 0 16 17"><path fill-rule="evenodd" d="M16 2A1.75 1.75 0 0014.25.25H1.75A1.75 1.75 0 000 2v4c0 .966.783 1.75 1.75 1.75h12.5A1.75 1.75 0 0016 6V2zm-1.75-.25a.25.25 0 01.25.25v4a.25.25 0 01-.25.25H1.75A.25.25 0 011.5 6V2a.25.25 0 01.25-.25h12.5zM16 10.5a1.75 1.75 0 00-1.75-1.75H1.75A1.75 1.75 0 000 10.5v4c0 .966.783 1.75 1.75 1.75h12.5A1.75 1.75 0 0016 14.5v-4zm-1.75-.25a.25.25 0 01.25.25v4a.25.25 0 01-.25.25H1.75a.25.25 0 01-.25-.25v-4a.25.25 0 01.25-.25h12.5z"/></svg>
